X:80
T:80 The Pilgrim
C:Aylmore MS
I:abc2nwc
M:6/8
L:1/8
K:D
A|d2d e2e|fd zz2A|Bcd A2G|FD zz2c|dcd ede|f3e2c|dfe dcB|(A3A2):|
A2A AGF|G2B e2G|G2G GFE|F2A d2F|GAB AFD|B2c d3|egf gec|(d3d2):|


